X:187
T:Toyland
C:Victor Herbert, arr. Dix Bruce
N:From the Mandozine website TablEdited by Mike Stangeland
L:1/8
Q:1/4=120
M:3/4
K:F
z6 | [f6d6] | [c6A6] | [e6c6] | [c6A6] | [d2B2] [d2c2] [d2B2] | [c4A4] [c2G2] | 
[F6D6] | [F6C6] | [B4F4] [B2E2] | [B4F4] [B2G2] | [f4A4] [f2c2] | z2 [f2=B2] [f2c2] | 
[f4d4] e2 | [f4d4] [d2G2] | [c6G6] | z6 | [f6d6] | [c6A6] | [e6c6] | [c6A6] | 
[d2B2] [d2c2] [d2B2] | [c4A4] [c2G2] | [F6D6] | [F6C6] | [B4F4] [B2E2] | [B4F4] [B2G2] | 
[A2F2] [e4c4] | [_g4d4] D2 | [G2D2] [f2c2] [f2B2] | [B4G4] [A2E2] | [A6F6] | 


